X: 488
T: THE NEW LESSON
B: O'Neill's 488
Z: 1999 by John Chambers <jc@trillian.mit.edu>
N: "Airily"
N: Collected by "F.O'Neill"
M: 6/8
L: 1/8
K:D
(f/e/) \
| (~dc).A ABA | (~=cA).F GFG | (~AF).D ECE | D3 D2(f/e/) |
| d(cA/B/) =c2d | (~=cA).F G2B | (~AG).F (~ED).E | D3 D2 ||
|| (F/G/) \
| Add/e/ fef | (~gf)e/d/ cAG | (Ad).f (e/d/c).e | d2e Hf2 (f/e/) |
| (~dc).A ABA | (~=cA).F GFG | (~AG).F (~ED).E | D3 D2 |]


